private/icons/dark/theme_dark.svg

<svg viewBox="0 0 36 36" xmlns="http://www.w3.org/2000/svg"><g fill="#375273"><path d="m27.9 25.08a.61.61 0 0 0 -.45-1 12.27 12.27 0 0 1 -11.23-12.18 12.15 12.15 0 0 1 1.18-5.22.62.62 0 0 0 -.61-.88 12.27 12.27 0 0 0 -11.08 13.61 12.67 12.67 0 0 0 12.92 10.85 12.29 12.29 0 0 0 9.27-5.18z"/><path d="m18 1.8a16.2 16.2 0 1 1 -16.2 16.2 16.22 16.22 0 0 1 16.2-16.2m0-1.8a18 18 0 1 0 18 18 18 18 0 0 0 -18-18z"/></g></svg>

<svg id="Layer_1" data-name="Layer 1" xmlns="http://www.w3.org/2000/svg" viewBox="0 0 36 36"><defs><style>.cls-1{fill:#375273;}</style></defs><path class="cls-1" d="M27.9,25.08a.61.61,0,0,0-.45-1A12.27,12.27,0,0,1,16.22,11.9,12.15,12.15,0,0,1,17.4,6.68a.62.62,0,0,0-.61-.88A12.27,12.27,0,0,0,5.71,19.41,12.67,12.67,0,0,0,18.63,30.26,12.29,12.29,0,0,0,27.9,25.08Z"/><path class="cls-1" d="M18,1.8A16.2,16.2,0,1,1,1.8,18,16.22,16.22,0,0,1,18,1.8M18,0A18,18,0,1,0,36,18,18,18,0,0,0,18,0Z"/></svg>
